X:1
T:When Jesus Comes
T:Philip Paul Bliss, 1872
T:When Jesus Comes
T:Public Domain
T:Public Domain
C:Philip Paul Bliss, 1872
Z:Public Domain
%%score ( 1 2 ) 3
L:1/8
M:4/4
K:G
V:1 treble 
V:2 treble 
V:3 bass 
V:1
 [DB]4 [DA]2 [DG]2 | E2 [EG]2 D2 [DG]2 | [GB]4 [DA]2 [EG]2 | [FA]6 z2 | [GB]4 [DA]2 [DG]2 | %5
w: 1.~Down life’s dark|vale we wan- der,|sus comes; We|watch|and wait and|
w: 2.~Oh, let my|lamp be burn- ing|sus comes; For|Him|my soul be|
w: 3.~No more heart|pangs nor sad- ness,|sus comes; All|peace|and joy and|
w: 4.~All doubts and|fears will van- ish,|sus comes; All|gloom|His face will|
w: 5.~He’ll know the|way was drear- y,|sus comes; He’ll|know|the feet grew|
w: 6.~He’ll know what|griefs op- pressed me,|sus comes; Oh,|how|His arms will|
 E2 [EG]2 E2 [DG]2 | [GB]4 [FA]3 G | G8 ||"^Refrain" [Gd]4 [Ge]2 [Gd]2 | [GB]2 [Gd]2 [DG]2 [GB]2 | %10
w: won- der, Till Je-|||||
w: yearn- ing When Je-|||||
w: glad- ness, When Je-|||||
w: ban- ish, When Je-|||||
w: wear- y, When Je-|||||
w: rest me! When Je-|||||
 [GB]4 [DA]2 [EG]2 | [Fd]6 z2 | [Gd]4 [Ge]2 [Gd]2 | [GB]2 [Gd]2 [DG]2 [GB]2 | [GB]4 [GA]2 G2 | %15
w: |||||
w: |||||
w: |||||
w: |||||
w: |||||
w: |||||
 [FA]6 z2 | [GB]4 [DA]2 [DG]2 | E2 [EG]2 D2 [DG]2 | [GB]4 [DA]2 [EG]2 | [FA]6 z2 | %20
w: |||||
w: |||||
w: |||||
w: |||||
w: |||||
w: |||||
 [GB]4 [DA]2 [DG]2 | E2 [EG]2 D2 [DG]2 | [GB]4 [FA]3 G | G8 |] %24
w: ||||
w: ||||
w: ||||
w: ||||
w: ||||
w: ||||
V:2
 x8 | E2 D2 x4 | x8 | x8 | x8 | E2 E2 x4 | x7 G | G8 || x8 | x8 | x8 | x8 | x8 | x8 | x6 G2 | x8 | %16
w: |Till Je-||||sus comes.|||||||||||
w: |When Je-||||sus comes.|||||||||||
w: |When Je-||||sus comes.|||||||||||
w: |When Je-||||sus comes.|||||||||||
w: |When Je-||||sus comes.|||||||||||
w: |When Je-||||sus comes.|||||||||||
 x8 | E2 D2 x4 | x8 | x8 | x8 | E2 D2 x4 | x7 G | G8 |] %24
w: ||||||||
w: ||||||||
w: ||||||||
w: ||||||||
w: ||||||||
w: ||||||||
V:3
 [G,D]4 [G,C]2 [G,B,]2 | [G,C]2 [G,C]2 [G,B,]2 [G,B,]2 | [G,D]4 [F,D]2 [E,^C]2 | [D,D]6 z2 | %4
w: ~ ~ ~|~ ~ ~ ~|~ ~ ~|~|
 [G,D]4 [G,C]2 [G,B,]2 | [G,C]2 [G,C]2 [G,B,]2 [G,B,]2 | [D,D]4 [D,C]3 [D,B,] | [G,,B,]8 || %8
w: ~ ~ ~|~ ~ ~ ~|~ ~ ~|~|
 [G,B,]4 [G,C]2 [G,B,]2 | [G,D]2 [G,B,]2 [G,B,]2 [G,D]2 | [G,D]4 [F,D]2 [E,^C]2 | [D,D]6 z2 | %12
w: All joy His|loved ones bring- ing,|When Je- sus|comes;|
 [G,B,]4 [G,C]2 [G,B,]2 | [G,D]2 [G,B,]2 [G,B,]2 [G,D]2 | [E,^C]4 [E,C]2 [E,C]2 | [D,D]6 z2 | %16
w: All praise through|heav- en ring- ing,|When Je- sus|comes.|
 [G,D]4 [G,C]2 [G,B,]2 | [G,C]2 [G,C]2 [G,B,]2 [G,B,]2 | [G,D]4 [F,D]2 [E,^C]2 | [D,D]6 z2 | %20
w: All beau- ty|bright and ver- nal,|When Je- sus|comes;|
 [G,D]4 [G,C]2 [G,B,]2 | [G,C]2 [G,C]2 [G,B,]2 [G,B,]2 | [D,D]4 [D,C]3 [D,B,] | [G,,B,]8 |] %24
w: All glo- ry,|grand, e- ter- nal,|When Je- sus|comes.|

